chrome/WhiteSur/icons/security-broken-symbolic.svg

<?xml version="1.0" encoding="UTF-8"?>
<svg xmlns="http://www.w3.org/2000/svg" xmlns:xlink="http://www.w3.org/1999/xlink" width="16px" height="16px" viewBox="0 0 16 16" version="1.1">
<g id="surface1">
<path style=" stroke:none;fill-rule:nonzero;fill:rgb(0%,0%,0%);fill-opacity:1;" d="M 6 3.878906 L 4.90625 2.773438 C 5.394531 1.539062 6.59375 0.667969 8 0.667969 C 9.839844 0.667969 11.332031 2.160156 11.332031 4 L 11.332031 5.332031 L 12 5.332031 C 12.738281 5.332031 13.332031 5.933594 13.332031 6.667969 L 13.332031 11.199219 L 7.464844 5.332031 L 10 5.332031 L 10 4 C 10 2.894531 9.105469 2 8 2 C 6.941406 2 6.074219 2.832031 6 3.878906 M 14.738281 14.308594 L 13.894531 15.152344 L 12.972656 14.234375 C 12.734375 14.5 12.386719 14.667969 12 14.667969 L 4 14.667969 C 3.261719 14.667969 2.667969 14.074219 2.667969 13.332031 L 2.667969 6.667969 C 2.667969 5.925781 3.265625 5.332031 4 5.332031 L 4.074219 5.332031 L 0.738281 2 L 1.59375 1.152344 L 14.738281 14.308594 M 9.234375 10.492188 L 7.507812 8.765625 C 7 8.960938 6.667969 9.441406 6.667969 10 C 6.667969 10.738281 7.265625 11.332031 8 11.332031 C 8.558594 11.332031 9.039062 11 9.234375 10.492188 Z M 9.234375 10.492188 "/>
</g>
</svg>

<?xml version="1.0"?>
<svg width="16" height="16" xmlns="http://www.w3.org/2000/svg" xmlns:svg="http://www.w3.org/2000/svg" version="1.1">
 <g class="layer">
  <title>Layer 1</title>
  <g id="surface1">
   <path d="m6,3.88l-1.09,-1.11c0.48,-1.23 1.68,-2.1 3.09,-2.1c1.84,0 3.33,1.49 3.33,3.33l0,1.33l0.67,0c0.74,0 1.33,0.6 1.33,1.34l0,4.53l-5.87,-5.87l2.54,0l0,-1.33c0,-1.11 -0.89,-2 -2,-2c-1.06,0 -1.93,0.83 -2,1.88m8.74,10.43l-0.85,0.84l-0.92,-0.92c-0.24,0.27 -0.58,0.44 -0.97,0.44l-8,0c-0.74,0 -1.33,-0.6 -1.33,-1.34l0,-6.66c0,-0.74 0.6,-1.34 1.33,-1.34l0.07,0l-3.33,-3.33l0.85,-0.85l13.15,13.16m-5.51,-3.82l-1.72,-1.72c-0.51,0.19 -0.84,0.67 -0.84,1.23c0,0.74 0.6,1.33 1.33,1.33c0.56,0 1.04,-0.33 1.23,-0.84zm0,0" fill="#363636" fill-rule="nonzero" id="svg_1"/>
  </g>
 </g>
</svg>
